src/svgs/toilet-paper.svg

<svg xmlns="http://www.w3.org/2000/svg" viewBox="0 0 24 24" width="512" height="512"><path d="M6.5 5.3C7.328 5.3 8 6.509 8 8s-.672 2.7-1.5 2.7S5 9.491 5 8s.672-2.7 1.5-2.7zM7 2h10c2.209 0 4 2.686 4 6v14l-2-2-2 2-2-2-2 2-2-2-2 2v-8H7c-2.209 0-4-2.686-4-6s1.791-6 4-6zm7 10h2v-2h-2zm4 0h2v-2h-2zm-8 0h2v-2h-2zm-3.5.5C7.881 12.5 9 10.485 9 8S7.881 3.5 6.5 3.5 4 5.515 4 8s1.119 4.5 2.5 4.5z"/></svg>

<svg xmlns="http://www.w3.org/2000/svg" viewBox="0 0 24 24"><path d="M6.5,5.3C7.328,5.3,8,6.509,8,8s-.672,2.7-1.5,2.7S5,9.491,5,8,5.672,5.3,6.5,5.3ZM7,2H17c2.209,0,4,2.686,4,6V22l-2-2-2,2-2-2-2,2-2-2L9,22V14H7c-2.209,0-4-2.686-4-6S4.791,2,7,2Zm7,10h2V10H14Zm4,0h2V10H18Zm-8,0h2V10H10Zm-3.5.5C7.881,12.5,9,10.485,9,8S7.881,3.5,6.5,3.5,4,5.515,4,8,5.119,12.5,6.5,12.5Z"/></svg>
